X:2242
T:Pålska
R:Polska
N:ur nothäfte från 1845
O:Västmanland
B:J E Schedin och A G Ahlins notbok
B:http://www.smus.se/earkiv/fmk/browselarge.php?lang=sw&katalogid=Vs+2&bildnr=00073
B:Jämför [[http://www.smus.se/earkiv/fmk/browselarge.php?lang=sw&katalogid=Ds+1%2C+Vr+5&bildnr=00103|SMUS - katalog Ds1+Vr5 bild 103]] efter [[Personer/Nils Johan Andersson]] ([[Platser/Värmland]])
M:3/4
L:1/8
Z:Nils L
K:C
cBcdec | A^GABcA | AGGGAF |1 F2Ez z2 :|2 F2E2 z2 |]
|: [GE]4 [GE]2 | [AF]4 A2 | [BG][BG][BG]GBd | d2 c2 z2 | [gc]4 [gc]2 | [af]4 [af]2 | b2 bgbd' | d'2 c'2  z2 :|
(:musicend:)

(:music:)
